X:1
T:Title
%%score { ( 1 3 ) | 2 }
L:1/8
M:6/8
K:Bb
V:1 treble nm="Grand Piano"
V:3 treble 
V:2 bass 
V:1
 z3 z2[Q:1/4=90] [DF] | [DB]>[DB][DFB] [CEA][B,DB][Ec] | [DB]3 [DF]2 [DB] | %3
 [Fd]>[Fd][Fd] [DB][DF][FB] | [Fc]3- [Fc]2 [EF] | [DB]>[DB][DB] ABc | [DB]3 [DF]2 [DF] | %7
 [EG]>[FA][GB] BFA |[M:5/8] [DB]-[DB]- [DB]3 |[M:1/8] [Fd] |[M:3/4] c>c cA GA | %11
 .[DB]2 B,B, B,[Fd] | [Ge][Fd]- [Fd]/[DB]/[=Ed] [Ec][EG] | B3 A2 F | [DB]>[DB] [DB][Fd] [DB]F | %15
 z [GB]- [GB]3 z | F>F Fc GA |[M:5/8] [DB]-[DB]- [DB]3 |] %18
V:2
 z3 z2 [B,,B,] | [B,,B,]>[B,,B,]B,, F,F,[F,A,] | [B,,B,]3 [B,,B,]2 [B,,F,] | %3
 [B,,B,]>[B,,B,][B,,B,] [B,,B,][B,,B,][D,B,] | [F,A,]3- [F,A,]2 [F,A,] | %5
 [B,,B,]>[B,,F,][B,,F,] [F,C][F,D][F,E] | [B,,F,]3 [B,,B,]2 [B,,B,] | %7
 [E,B,]>[E,B,][E,B,] [F,DF][F,B,D][F,CE] |[M:5/8] [B,,B,]-[B,,B,]- [B,,B,]3 |[M:1/8] [B,,B,] | %10
[M:3/4] [F,A,F]>[F,A,F] [F,A,F][F,CE] [F,CE][F,CE] | [B,,B,][B,,B,] B,,B,, B,,[B,,B,] | %12
 [B,,B,][B,,B,]- [B,,B,]/[B,,B,]/[C,G,] [C,G,][C,C] | [F,CE]4- [F,CE][F,A,E] | %14
 [B,,B,]>[B,,F,] [B,,F,][B,,B,] [B,,B,][D,B,] | [E,B,E][E,E] E,E, E,[E,B,E] | %16
 [F,B,D]>[F,B,D] [F,B,D][F,A,E] [F,A,E][F,CE] |[M:5/8] [B,,B,]-[B,,B,]- [B,,B,]3 |] %18
V:3
 x6 | x6 | x6 | x6 | x6 | x6 | x6 | x6 |[M:5/8] x5 |[M:1/8] x |[M:3/4] x6 | z [DF]- [DF]3 z | x6 | %13
 x6 | x6 | .G2 EE EG | x6 |[M:5/8] x5 |] %18

